sirius_gui/src/main/resources/icons/circular-icons-svg/c-zodiac.svg

<?xml version="1.0" encoding="UTF-8" standalone="no"?>
<!-- Generator: Adobe Illustrator 18.1.1, SVG Export Plug-In . SVG Version: 6.00 Build 0)  -->

<svg
   version="1.1"
   id="Capa_1"
   x="0px"
   y="0px"
   viewBox="0 0 64 64"
   xml:space="preserve"
   sodipodi:docname="c-zodiac.svg"
   inkscape:version="1.2 (dc2aeda, 2022-05-15)"
   width="64"
   height="64"
   inkscape:export-filename="c-zodiac.png"
   inkscape:export-xdpi="96"
   inkscape:export-ydpi="96"
   xmlns:inkscape="http://www.inkscape.org/namespaces/inkscape"
   xmlns:sodipodi="http://sodipodi.sourceforge.net/DTD/sodipodi-0.dtd"
   xmlns="http://www.w3.org/2000/svg"
   xmlns:svg="http://www.w3.org/2000/svg"
   xmlns:rdf="http://www.w3.org/1999/02/22-rdf-syntax-ns#"
   xmlns:cc="http://creativecommons.org/ns#"
   xmlns:dc="http://purl.org/dc/elements/1.1/"><metadata
     id="metadata41"><rdf:RDF><cc:Work
         rdf:about=""><dc:format>image/svg+xml</dc:format><dc:type
           rdf:resource="http://purl.org/dc/dcmitype/StillImage" /></cc:Work></rdf:RDF></metadata><defs
     id="defs39" /><sodipodi:namedview
     pagecolor="#ffffff"
     bordercolor="#666666"
     borderopacity="1"
     objecttolerance="10"
     gridtolerance="10"
     guidetolerance="10"
     inkscape:pageopacity="0"
     inkscape:pageshadow="2"
     inkscape:window-width="1903"
     inkscape:window-height="921"
     id="namedview37"
     showgrid="false"
     inkscape:zoom="3.7088463"
     inkscape:cx="-10.785025"
     inkscape:cy="24.401119"
     inkscape:window-x="0"
     inkscape:window-y="25"
     inkscape:window-maximized="0"
     inkscape:current-layer="g4"
     inkscape:showpageshadow="2"
     inkscape:pagecheckerboard="0"
     inkscape:deskcolor="#d1d1d1" /><g
     id="g4"><circle
       style="fill:#ffffff;stroke-width:3.46052;stroke-miterlimit:8.5;paint-order:markers fill stroke;stop-color:#000000;fill-opacity:1"
       id="path13914"
       cx="32"
       cy="32"
       r="32" /><path
       style="fill:#4da6bf;fill-opacity:1;stroke-width:0.695645"
       d="m 15.558787,21.26516 c 0.698428,0 1.373203,0.105738 2.008326,0.30191 2.398583,-2.687971 5.058032,-5.133162 7.938001,-7.304269 -0.120346,-0.508516 -0.191302,-1.035814 -0.191302,-1.581895 0,-0.754079 0.127998,-1.478245 0.354779,-2.156499 C 22.442886,8.2093021 18.933359,6.2670623 15.201226,4.7651656 11.701438,6.9279247 8.6496451,9.7473723 6.2176715,13.051684 c 1.8058935,3.197183 3.9526525,6.179411 6.3922785,8.893121 0.893208,-0.4313 1.892153,-0.679645 2.948837,-0.679645 z m -6.8075778,6.807578 c 0,-0.955815 0.19965,-1.865719 0.5551244,-2.690753 C 7.1206183,22.983402 5.142205,20.394213 3.407963,17.635982 1.2319866,21.955935 0,26.832404 0,31.998957 0,37.982891 1.6458952,43.579352 4.5049945,48.369561 5.5262008,42.611711 7.4642667,37.172466 10.141803,32.183302 9.2715514,31.041054 8.7512092,29.619852 8.7512092,28.072738 Z M 32.122086,5.8719362 c 1.798241,0 3.428832,0.7019054 4.645514,1.8406756 C 40.319562,6.1842806 44.061434,5.0128151 47.952174,4.2636058 43.255182,1.5568526 37.811067,0 31.999652,0 c -3.961,0 -7.753655,0.72555733 -11.25553,2.0424126 2.779796,1.3718112 5.428115,2.9745763 7.919914,4.7811654 1.01425,-0.6010369 2.194759,-0.9516418 3.45805,-0.9516418 z M 42.30354,37.939066 c 0.423648,-0.882077 1.02538,-1.661895 1.769024,-2.28241 -2.009021,-6.184976 -5.192987,-11.840567 -9.293116,-16.706601 -0.815991,0.346431 -1.714068,0.538429 -2.657362,0.538429 -1.476854,0 -2.839622,-0.475821 -3.955436,-1.274421 -2.467451,1.875458 -4.751252,3.978391 -6.827752,6.273323 0.648341,1.04138 1.028859,2.268497 1.028859,3.585352 0,0.711645 -0.109912,1.396159 -0.311649,2.040326 5.972109,3.990217 12.843687,6.725492 20.247432,7.826002 z m 8.831209,9.190161 c 0.09391,1.289029 0.143302,2.589885 0.143302,3.90187 0,2.310236 -0.147476,4.58569 -0.425734,6.820796 5.425332,-3.963783 9.557461,-9.590852 11.640917,-16.134086 -2.467452,0.596863 -5.000294,1.023294 -7.583918,1.271639 -0.607993,1.862936 -1.994413,3.370398 -3.774567,4.139781 z M 40.708427,42.515016 c -7.898349,-1.308507 -15.222791,-4.32204 -21.596983,-8.640602 -1.034423,0.634428 -2.248323,1.007989 -3.551265,1.007989 -0.478604,0 -0.944686,-0.05078 -1.396159,-0.144694 -3.051793,5.785677 -5.0016848,12.238476 -5.5623744,19.080141 3.0469234,3.266747 6.7644484,5.89837 10.9404024,7.665308 5.183248,-7.973479 12.432561,-14.568885 21.166379,-18.968142 z M 53.481158,8.2823448 c -5.127597,0.4946033 -10.02563,1.7815462 -14.585581,3.7161332 0.02435,0.224693 0.03548,0.451474 0.03548,0.681732 0,1.074771 -0.255997,2.087629 -0.699123,2.991967 4.555081,5.348116 8.093825,11.581092 10.32754,18.403974 2.76797,0.04939 5.135249,1.745373 6.152977,4.153694 3.080314,-0.312344 6.079934,-0.901555 8.969641,-1.751633 C 63.88661,35.014576 64,33.521027 64,31.998957 64,22.593841 59.941609,14.13689 53.481158,8.2823448 Z M 44.133781,46.152542 C 35.980826,49.971631 29.164205,55.853306 24.227215,63.044184 26.715536,63.665395 29.317942,64 31.999652,64 c 4.827078,0 9.400941,-1.075467 13.504549,-2.989185 0.659471,-3.225704 1.008685,-6.562016 1.008685,-9.979718 0,-1.234769 -0.05565,-2.457016 -0.148173,-3.668134 -0.822947,-0.263649 -1.577026,-0.676862 -2.230932,-1.210421 z"
       id="path2" /></g><g
     id="g6" /><g
     id="g8" /><g
     id="g10" /><g
     id="g12" /><g
     id="g14" /><g
     id="g16" /><g
     id="g18" /><g
     id="g20" /><g
     id="g22" /><g
     id="g24" /><g
     id="g26" /><g
     id="g28" /><g
     id="g30" /><g
     id="g32" /><g
     id="g34" /></svg>

<?xml version="1.0" encoding="UTF-8"?>
<!-- Generator: Adobe Illustrator 18.1.1, SVG Export Plug-In . SVG Version: 6.00 Build 0)  -->
<svg id="Capa_1" width="64" height="64" version="1.1" viewBox="0 0 64 64" xml:space="preserve" xmlns="http://www.w3.org/2000/svg" xmlns:cc="http://creativecommons.org/ns#" xmlns:dc="http://purl.org/dc/elements/1.1/" xmlns:rdf="http://www.w3.org/1999/02/22-rdf-syntax-ns#"><metadata id="metadata41"><rdf:RDF><cc:Work rdf:about=""><dc:format>image/svg+xml</dc:format><dc:type rdf:resource="http://purl.org/dc/dcmitype/StillImage"/></cc:Work></rdf:RDF></metadata><g id="g4"><circle id="path13914" cx="32" cy="32" r="32" fill="#fff" stop-color="#000000" stroke-miterlimit="8.5" stroke-width="3.4605" style="paint-order:markers fill stroke"/><path id="path2" d="m15.559 21.265c0.69843 0 1.3732 0.10574 2.0083 0.30191 2.3986-2.688 5.058-5.1332 7.938-7.3043-0.12035-0.50852-0.1913-1.0358-0.1913-1.5819 0-0.75408 0.128-1.4782 0.35478-2.1565-3.2257-2.3151-6.7352-4.2573-10.467-5.7592-3.4998 2.1628-6.5516 4.9822-8.9836 8.2865 1.8059 3.1972 3.9527 6.1794 6.3923 8.8931 0.89321-0.4313 1.8922-0.67964 2.9488-0.67964zm-6.8076 6.8076c0-0.95582 0.19965-1.8657 0.55512-2.6908-2.1857-2.3986-4.1641-4.9878-5.8984-7.746-2.176 4.32-3.408 9.1964-3.408 14.363 0 5.9839 1.6459 11.58 4.505 16.371 1.0212-5.7578 2.9593-11.197 5.6368-16.186-0.87025-1.1422-1.3906-2.5634-1.3906-4.1106zm23.371-22.201c1.7982 0 3.4288 0.70191 4.6455 1.8407 3.552-1.5283 7.2938-2.6998 11.185-3.449-4.697-2.7068-10.141-4.2636-15.953-4.2636-3.961 0-7.7537 0.72556-11.256 2.0424 2.7798 1.3718 5.4281 2.9746 7.9199 4.7812 1.0142-0.60104 2.1948-0.95164 3.458-0.95164zm10.181 32.067c0.42365-0.88208 1.0254-1.6619 1.769-2.2824-2.009-6.185-5.193-11.841-9.2931-16.707-0.81599 0.34643-1.7141 0.53843-2.6574 0.53843-1.4769 0-2.8396-0.47582-3.9554-1.2744-2.4675 1.8755-4.7513 3.9784-6.8278 6.2733 0.64834 1.0414 1.0289 2.2685 1.0289 3.5854 0 0.71164-0.10991 1.3962-0.31165 2.0403 5.9721 3.9902 12.844 6.7255 20.247 7.826zm8.8312 9.1902c0.09391 1.289 0.1433 2.5899 0.1433 3.9019 0 2.3102-0.14748 4.5857-0.42573 6.8208 5.4253-3.9638 9.5575-9.5909 11.641-16.134-2.4675 0.59686-5.0003 1.0233-7.5839 1.2716-0.60799 1.8629-1.9944 3.3704-3.7746 4.1398zm-10.426-4.6142c-7.8983-1.3085-15.223-4.322-21.597-8.6406-1.0344 0.63443-2.2483 1.008-3.5513 1.008-0.4786 0-0.94469-0.05078-1.3962-0.14469-3.0518 5.7857-5.0017 12.238-5.5624 19.08 3.0469 3.2667 6.7644 5.8984 10.94 7.6653 5.1832-7.9735 12.433-14.569 21.166-18.968zm12.773-34.233c-5.1276 0.4946-10.026 1.7815-14.586 3.7161 0.02435 0.22469 0.03548 0.45147 0.03548 0.68173 0 1.0748-0.256 2.0876-0.69912 2.992 4.5551 5.3481 8.0938 11.581 10.328 18.404 2.768 0.04939 5.1352 1.7454 6.153 4.1537 3.0803-0.31234 6.0799-0.90156 8.9696-1.7516 0.20452-1.4636 0.31791-2.9572 0.31791-4.4793 0-9.4051-4.0584-17.862-10.519-23.717zm-9.3474 37.87c-8.153 3.8191-14.97 9.7008-19.907 16.892 2.4883 0.62121 5.0907 0.95582 7.7724 0.95582 4.8271 0 9.4009-1.0755 13.505-2.9892 0.65947-3.2257 1.0087-6.562 1.0087-9.9797 0-1.2348-0.05565-2.457-0.14817-3.6681-0.82295-0.26365-1.577-0.67686-2.2309-1.2104z" fill="#4da6bf" stroke-width=".69564"/></g></svg>
